X:4051
L:1/8
M:4/4
K:D
 B | AGF{G} FED | DED{G} FED | DED FED | FGA Bcd | AFA{c} d3 | cBA{c} d3 | TB>cd AGF | E>FE GAB | 
 AGF{G} FED | DED{G} FED | DED{G} FED | FGA Bcd | AFA{c} d3 | cBA{c} d3 | TB>cd AGF | E>FE GAB || 
 A>BA A2 g | Tfef d2 B | A>GA A2 d/e/ | fdB Bcd | A>BA A2 g | Tfef d2 d/e/ | fdB AGF | BGE EGB | 
 A>BA A2 g | Tfef d2 B | A>BA A2 d/e/ | fdB Beg | fdf ece | dcB A2 B/c/ | dcB AGF | BGE GAB ||

